X:103
T:Turnpike Way, The
R:slip jig
B:Goodman collection
D:Martin Nolan: Bright Silver Dark Wood
Z:id:hn-slipjig-103
M:9/8
L:1/8
K:D
FGA BGB A2G | FGA B2d cAG | FGA BGB ~A3 | cde fed cAG :|
|: cde fdf e2d | cde f2a ged | cde eag fed | cAA fed cAG :|

